suite-common/icons/assets/icons/addressNext.svg

<svg xmlns="http://www.w3.org/2000/svg" viewBox="0 0 40 16">
  <path fill-rule="evenodd" d="M.507 3.151c-.836.479-.571 1.724.39 1.832 1.052.119 1.519-1.283.605-1.819-.347-.203-.657-.207-.995-.013m3 0c-.836.479-.571 1.724.39 1.832 1.052.119 1.519-1.283.605-1.819-.347-.203-.657-.207-.995-.013m3 0c-.836.479-.571 1.724.39 1.832 1.052.119 1.519-1.283.605-1.819-.347-.203-.657-.207-.995-.013m3.587-.056c-.585.255-.758 1.018-.348 1.539.305.388-.482.366 12.919.366H35v5.559l-.683-.671c-.376-.368-.78-.719-.897-.779-.3-.153-.596-.136-.922.055-.454.267-.62.793-.397 1.262.056.117.843.952 1.75 1.855 2.3 2.291 1.998 2.291 4.298 0 .907-.903 1.694-1.738 1.75-1.855.405-.853-.48-1.739-1.319-1.319-.117.058-.521.41-.897.782l-.683.675V7.176c0-3.824.014-3.712-.498-4.012L36.222 3l-12.961.003c-10.697.002-12.997.018-13.167.092"/>
</svg>

<svg xmlns="http://www.w3.org/2000/svg" viewBox="0 0 40 16"><path d="M0.507 3.151 C -0.329 3.630,-0.064 4.875,0.897 4.983 C 1.949 5.102,2.416 3.700,1.502 3.164 C 1.155 2.961,0.845 2.957,0.507 3.151 M3.507 3.151 C 2.671 3.630,2.936 4.875,3.897 4.983 C 4.949 5.102,5.416 3.700,4.502 3.164 C 4.155 2.961,3.845 2.957,3.507 3.151 M6.507 3.151 C 5.671 3.630,5.936 4.875,6.897 4.983 C 7.949 5.102,8.416 3.700,7.502 3.164 C 7.155 2.961,6.845 2.957,6.507 3.151 M10.094 3.095 C 9.509 3.350,9.336 4.113,9.746 4.634 C 10.051 5.022,9.264 5.000,22.665 5.000 L 35.000 5.000 35.000 7.779 L 35.000 10.559 34.317 9.888 C 33.941 9.520,33.537 9.169,33.420 9.109 C 33.120 8.956,32.824 8.973,32.498 9.164 C 32.044 9.431,31.878 9.957,32.101 10.426 C 32.157 10.543,32.944 11.378,33.851 12.281 C 36.151 14.572,35.849 14.572,38.149 12.281 C 39.056 11.378,39.843 10.543,39.899 10.426 C 40.304 9.573,39.419 8.687,38.580 9.107 C 38.463 9.165,38.059 9.517,37.683 9.889 L 37.000 10.564 37.000 7.176 C 37.000 3.352,37.014 3.464,36.502 3.164 L 36.222 3.000 23.261 3.003 C 12.564 3.005,10.264 3.021,10.094 3.095 " stroke="none" fill-rule="evenodd" fill="black"></path></svg>
